X: 1
T: Beaucatcher's Farewell
C: R. Zentz
R: march, reel
Z: 2012 John Chambers <jc:trillian.mit.edu>
S: handwritten MS from Rich Armstrong
M: C|
L: 1/8
K: G
|:\
"G"B2B2 B2cd | "C"e2G2 G3A | "Em"B2E2 E2FG | "D7"AGFE D4 |\
"G"B2B2 B2cd | "C"e2G2 G3F | "Am"E2c2 "D7"BAGF | "G"G8 :|
|:\
"G"g2g>g gbag | "D"fgfe d2dd | "C"edef g2fe | "G"d2B2 B2AB |\
"Am"c2c>c "D7"cedc | "B"B2"D"d2 "Em"g2GA | "G"B3c "D7"BAGF | "G"G8 :|
